img/contacts__icon_02.svg

<svg width="42" height="44" viewBox="0 0 42 44" fill="none" xmlns="http://www.w3.org/2000/svg">
<path d="M41.4154 0.908691H13.2605V12.7368H0.594238V35.877H7.66915L14.949 43.7215L14.9527 35.877H30.0399V24.0494H41.4154V0.908691ZM28.456 34.2632H13.3698L13.3672 39.6668L8.35202 34.2632H2.17917V14.3517H13.261V24.0499H19.3494V31.316L26.6155 24.0499H28.456V34.2632ZM39.831 22.4356H25.9675L20.9333 27.4696V22.4356H14.8449V2.52301H39.831V22.4356Z" fill="black"/>
<path d="M20.732 9.79218C20.7347 9.79218 20.7373 9.79218 20.7399 9.79218C22.008 9.7868 23.0368 8.7305 23.0321 7.43851C23.0299 6.81215 22.7886 6.224 22.3518 5.78275C21.9151 5.34151 21.3304 5.10367 20.722 5.10205C20.1067 5.1042 19.5295 5.35012 19.0964 5.79567C18.6633 6.24068 18.4262 6.82991 18.4294 7.45573C18.4346 8.7461 19.4666 9.79218 20.732 9.79218ZM20.2213 6.93269C20.356 6.79386 20.5361 6.71744 20.7278 6.71691C20.7289 6.71691 20.7299 6.71691 20.731 6.71691C20.9211 6.71691 21.1007 6.79224 21.2359 6.92892C21.3716 7.06668 21.4466 7.24963 21.4477 7.44443C21.4487 7.84747 21.1287 8.17625 20.7336 8.1784C20.7326 8.1784 20.732 8.1784 20.731 8.1784C20.3365 8.1784 20.0153 7.85231 20.0132 7.44981C20.0127 7.25448 20.0861 7.07098 20.2213 6.93269Z" fill="black"/>
<path d="M27.8656 9.7923C27.8682 9.7923 27.8709 9.7923 27.8735 9.7923C28.4888 9.78961 29.0655 9.54316 29.4986 9.09868C29.9317 8.65421 30.1688 8.06444 30.1656 7.43809C30.1635 6.81227 29.9222 6.22466 29.4859 5.78341C29.0497 5.34163 28.4761 5.09517 27.8566 5.10271C27.2408 5.10486 26.663 5.35131 26.2294 5.79633C25.7964 6.2408 25.5598 6.83057 25.5624 7.45638C25.5682 8.74622 26.6002 9.7923 27.8656 9.7923ZM27.3549 6.93334C27.4901 6.79451 27.6702 6.7181 27.863 6.71702C27.864 6.71702 27.8651 6.71702 27.8661 6.71702C28.0557 6.71702 28.2348 6.79236 28.3694 6.92904C28.5052 7.06626 28.5802 7.24975 28.5812 7.44454V7.44562C28.5818 7.64041 28.5083 7.82391 28.3737 7.9622C28.239 8.10103 28.0589 8.17745 27.8677 8.17852C27.8667 8.17852 27.8661 8.17852 27.8651 8.17852C27.4706 8.17852 27.1494 7.85243 27.1473 7.44993C27.1468 7.25459 27.2202 7.0711 27.3549 6.93334Z" fill="black"/>
</svg>

<svg width="42" height="44" fill="none" xmlns="http://www.w3.org/2000/svg"><path d="M41.415.909H13.261v11.828H.594v23.14H7.67l7.28 7.844.004-7.844H30.04V24.049h11.375V.91zM28.456 34.263H13.37l-.003 5.404-5.015-5.404H2.179V14.352h11.082v9.698h6.088v7.266l7.267-7.266h1.84v10.213zm11.375-11.827H25.967l-5.034 5.034v-5.034h-6.088V2.523H39.83v19.913z" fill="#000"/><path d="M20.732 9.792h.008c1.268-.005 2.297-1.062 2.292-2.353a2.35 2.35 0 00-.68-1.656 2.292 2.292 0 00-1.63-.681 2.262 2.262 0 00-1.626.694 2.348 2.348 0 00-.667 1.66c.006 1.29 1.038 2.336 2.303 2.336zm-.51-2.86a.704.704 0 01.506-.215h.003c.19 0 .37.075.505.212a.736.736 0 01-.502 1.25h-.003a.726.726 0 01-.718-.73c0-.195.073-.378.208-.516zm7.644 2.86h.008a2.267 2.267 0 001.625-.693 2.35 2.35 0 00.667-1.66 2.35 2.35 0 00-.68-1.656 2.233 2.233 0 00-1.63-.68 2.268 2.268 0 00-1.627.693 2.35 2.35 0 00-.667 1.66c.006 1.29 1.038 2.336 2.304 2.336zm-.511-2.859a.709.709 0 01.508-.216h.003c.19 0 .369.075.503.212.136.137.211.32.212.516a.733.733 0 01-.207.517.706.706 0 01-.506.217h-.003a.726.726 0 01-.718-.73.73.73 0 01.208-.516z" fill="#000"/></svg>
